X:563
T:
S:Efter »Florsen» i Burs.
R:vals
O:Gotland, Burs
M:3/4
L:1/8
K:D
DFAFAF|DGBGBG|Acecec|Adfdfd|DFAFAF|DGBGBG|Acecec|
d6::efgfge|Adfdfd|Acecec|defg a2|efgfge|Adfdfd|
Acecec|d4 z2:|

